static/assets/svg/human/humanClothes/female_shirt6_stickers/female_shirt6_sticker8.svg

<svg class="shirtOverlay" width="86" height="380" viewBox="202.715 584.407 86.5933 380.048" preserveAspectRatio="xMidYMax" xmlns="http://www.w3.org/2000/svg">
  <defs id="svgEditorDefs">
    <path id="svgEditorClosePathDefs" fill="black" style="stroke-width: 0px; stroke: none;" class="clothes"/>
    <style id="style6" type="text/css">
    .str2 {stroke:black;stroke-width:0.00562512;stroke-linecap:round}
    .str7 {stroke:black;stroke-width:0.0058717;stroke-linecap:round}
    .str1 {stroke:black;stroke-width:0.00920054;stroke-linecap:round}
    .str4 {stroke:black;stroke-width:0.00959738;stroke-linecap:round}
    .str3 {stroke:white;stroke-width:0.0147332;stroke-linecap:round}
    .str6 {stroke:black;stroke-width:0.0153574;stroke-linecap:round}
    .str8 {stroke:white;stroke-width:0.0153574;stroke-linecap:round}
    .str0 {stroke:black;stroke-width:0.0221537;stroke-linecap:round}
    .str5 {stroke:black;stroke-width:0.0230938;stroke-linecap:round}
    .fil0 {fill:none;fill-rule:nonzero}
  </style>
    <radialGradient id="gradient-0" gradientUnits="userSpaceOnUse" cx="239.503" cy="683.733" r="6.76">
      <stop offset="0" style="stop-color: rgba(251, 251, 251, 1)"/>
      <stop offset="1" style="stop-color: rgba(200, 200, 200, 1)"/>
    </radialGradient>
    <radialGradient id="gradient-1" gradientUnits="userSpaceOnUse" cx="253.594" cy="684.462" r="6.446">
      <stop offset="0" style="stop-color: rgba(251, 251, 251, 1)"/>
      <stop offset="1" style="stop-color: rgba(200, 200, 200, 1)"/>
    </radialGradient>
    <radialGradient id="gradient-2" gradientUnits="userSpaceOnUse" cx="3.898" cy="6.744" r="1.049">
      <stop offset="0" style="stop-color: rgba(251, 251, 251, 1)"/>
      <stop offset="1" style="stop-color: rgba(200, 200, 200, 1)"/>
    </radialGradient>
    <radialGradient id="gradient-3" gradientUnits="userSpaceOnUse" cx="3.042" cy="6.469" r="0.66">
      <stop offset="0" style="stop-color: rgba(251, 251, 251, 1)"/>
      <stop offset="1" style="stop-color: rgba(200, 200, 200, 1)"/>
    </radialGradient>
    <radialGradient id="gradient-4" gradientUnits="userSpaceOnUse" cx="4.592" cy="6.499" r="0.986">
      <stop offset="0" style="stop-color: rgba(251, 251, 251, 1)"/>
      <stop offset="1" style="stop-color: rgba(200, 200, 200, 1)"/>
    </radialGradient>
    <radialGradient id="gradient-5" gradientUnits="userSpaceOnUse" cx="3.837" cy="5.311" r="0.795">
      <stop offset="0" style="stop-color: rgba(251, 251, 251, 1)"/>
      <stop offset="1" style="stop-color: rgba(200, 200, 200, 1)"/>
    </radialGradient>
    <radialGradient id="gradient-6" gradientUnits="userSpaceOnUse" cx="3.979" cy="5.325" r="0.343">
      <stop offset="0" style="stop-color: rgba(251, 251, 251, 1)"/>
      <stop offset="1" style="stop-color: rgba(200, 200, 200, 1)"/>
    </radialGradient>
    <radialGradient id="gradient-7" gradientUnits="userSpaceOnUse" cx="3.702" cy="5.545" r="0.077">
      <stop offset="0" style="stop-color: rgba(251, 251, 251, 1)"/>
      <stop offset="1" style="stop-color: rgba(200, 200, 200, 1)"/>
    </radialGradient>
    <radialGradient id="gradient-8" gradientUnits="userSpaceOnUse" cx="3.868" cy="5.352" r="0.287">
      <stop offset="0" style="stop-color: rgba(251, 251, 251, 1)"/>
      <stop offset="1" style="stop-color: rgba(200, 200, 200, 1)"/>
    </radialGradient>
    <radialGradient id="gradient-9" gradientUnits="userSpaceOnUse" cx="3.635" cy="5.441" r="0.058">
      <stop offset="0" style="stop-color: rgba(251, 251, 251, 1)"/>
      <stop offset="1" style="stop-color: rgba(200, 200, 200, 1)"/>
    </radialGradient>
    <radialGradient id="gradient-10" gradientUnits="userSpaceOnUse" cx="4.254" cy="5.532" r="0.071">
      <stop offset="0" style="stop-color: rgba(251, 251, 251, 1)"/>
      <stop offset="1" style="stop-color: rgba(200, 200, 200, 1)"/>
    </radialGradient>
    <radialGradient id="gradient-11" gradientUnits="userSpaceOnUse" cx="4.318" cy="5.456" r="0.026">
      <stop offset="0" style="stop-color: rgba(251, 251, 251, 1)"/>
      <stop offset="1" style="stop-color: rgba(200, 200, 200, 1)"/>
    </radialGradient>
    <radialGradient id="gradient-12" gradientUnits="userSpaceOnUse" cx="3.92" cy="6.983" r="0.202">
      <stop offset="0" style="stop-color: rgba(251, 251, 251, 1)"/>
      <stop offset="1" style="stop-color: rgba(200, 200, 200, 1)"/>
    </radialGradient>
    <radialGradient id="gradient-13" gradientUnits="userSpaceOnUse" cx="4.376" cy="6.882" r="0.256">
      <stop offset="0" style="stop-color: rgba(251, 251, 251, 1)"/>
      <stop offset="1" style="stop-color: rgba(200, 200, 200, 1)"/>
    </radialGradient>
    <radialGradient id="gradient-14" gradientUnits="userSpaceOnUse" cx="3.917" cy="7.106" r="0.052">
      <stop offset="0" style="stop-color: rgba(251, 251, 251, 1)"/>
      <stop offset="1" style="stop-color: rgba(200, 200, 200, 1)"/>
    </radialGradient>
    <radialGradient id="gradient-15" gradientUnits="userSpaceOnUse" cx="246.113" cy="715.868" r="18.622">
      <stop offset="0" style="stop-color: rgba(251, 251, 251, 1)"/>
      <stop offset="1" style="stop-color: rgba(200, 200, 200, 1)"/>
    </radialGradient>
    <radialGradient id="gradient-16" gradientUnits="userSpaceOnUse" cx="245.949" cy="724.158" r="15.037">
      <stop offset="0" style="stop-color: rgba(251, 251, 251, 1)"/>
      <stop offset="1" style="stop-color: rgba(200, 200, 200, 1)"/>
    </radialGradient>
  </defs>
  <rect id="svgEditorBackground" x="202.71499633789062" y="584.4310302734375" width="86.59329986572266" height="115.80899810791016" style="fill: none; stroke: none;" class="clothes"/>
  <rect id="rect-1" x="-403.988" y="499.579" width="1300" height="550" style="fill: none; stroke: none;" class="clothes"/>
  <g>
    <path d="M 232.743 676.441 C 236.402 675.207 242.481 676.635 243.791 679.448 C 245.747 681.659 247.203 687.837 245.535 691.472 C 246.194 681.278 240.132 675.872 232.743 676.441 Z" id="e39_area3" style="stroke: none; stroke-width: 0px; fill: url(#gradient-0);" class="clothes"/>
    <path d="M 247.148 691.558 C 250.636 692.753 255.817 690.788 257.682 688.647 C 259.546 686.505 260.935 680.522 259.345 677.003 C 259.973 686.874 254.193 692.109 247.148 691.558 Z" id="e9_area3" style="stroke: none; stroke-width: 0px; fill: url(#gradient-1);" class="clothes" transform="matrix(-1, 0, 0, -1, 507.187549, 1368.923346)"/>
    <g transform="matrix(5.057047, 0, 0, 5.086134, 224.843307, 660.312805)">
      <g id="_30190384" transform="matrix(4.6172, 0, 0, 4.584404, -14.131, -25.156963)">
        <path id="_30193904" style="stroke: rgb(0, 0, 0); stroke-width: 0.0058717; stroke-linecap: round; fill: url(#gradient-2);" d="M 3.697 5.82 L 4.122 5.82 L 4.122 5.968 L 3.697 5.968 L 3.697 5.82 Z M 3.418 6.012 C 3.414 6.067 3.446 6.17 3.446 6.213 C 3.446 6.257 3.438 6.32 3.426 6.356 M 3.437 5.945 C 3.426 5.981 3.445 6.088 3.453 6.129 C 3.46 6.162 3.466 6.194 3.466 6.213 C 3.466 6.259 3.457 6.325 3.445 6.362 M 3.462 5.897 C 3.457 5.944 3.462 6.032 3.471 6.064 C 3.481 6.097 3.484 6.112 3.482 6.148 M 3.964 6.283 C 3.964 6.283 4.027 6.315 4.03 6.331 M 4.023 6.342 C 4.011 6.324 3.945 6.3 3.932 6.301 M 4.016 6.354 C 3.994 6.333 3.926 6.317 3.9 6.32 M 4.01 6.365 C 3.977 6.342 3.907 6.335 3.869 6.338 M 3.837 6.357 C 3.922 6.284 3.961 6.351 4.002 6.377 M 3.214 7.667 L 3.377 7.663 L 3.377 7.663 C 3.429 7.661 3.473 7.656 3.516 7.652 C 3.588 7.645 3.657 7.638 3.753 7.644 C 3.8 7.647 3.841 7.647 3.879 7.646 M 3.939 7.644 C 3.949 7.643 3.958 7.643 3.968 7.642 C 4.016 7.64 4.059 7.637 4.104 7.639 L 4.19 7.645 C 4.283 7.651 4.394 7.659 4.479 7.649 C 4.578 7.637 4.36 7.622 4.449 7.623 L 4.449 7.623 L 4.509 7.624 C 4.515 7.624 4.52 7.624 4.526 7.624 M 3.213 7.645 L 3.378 7.641 C 3.378 7.641 3.471 7.635 3.514 7.631 C 3.587 7.623 3.657 7.617 3.754 7.622 C 3.795 7.625 3.833 7.625 3.867 7.625 M 3.95 7.622 C 3.956 7.621 3.961 7.621 3.967 7.621 C 4.015 7.618 4.06 7.616 4.105 7.618 L 4.192 7.623 C 4.283 7.629 4.393 7.637 4.477 7.627 C 4.576 7.615 4.359 7.601 4.45 7.601 L 4.947 7.264 M 3.308 7.668 L 3.825 7.18 L 3.863 6.042 C 3.863 6.042 3.657 7.576 3.757 7.582 C 3.802 7.585 3.841 7.585 3.878 7.584 M 3.936 7.582 C 3.945 7.582 3.955 7.581 3.964 7.581 C 4.014 7.578 3.776 7.158 3.823 7.16 L 4.195 7.583 C 4.283 7.589 4.39 7.597 4.472 7.587 C 4.573 7.575 4.358 7.56 4.45 7.561 L 4.45 7.561 L 4.684 7.578 M 3.805 6.138 C 3.987 6.04 3.867 7.99 3.145 7.524 C 2.423 7.058 3.266 6.722 3.107 6.432" class="fil0 str7"/>
        <path id="_30190360" style="stroke: rgb(0, 0, 0); stroke-width: 0.015357; stroke-linecap: round; fill: url(#gradient-3);" d="M 3.675 5.332 C 3.329 5.5 3.451 5.407 3.172 5.567 C 2.893 5.727 2.395 6.543 2.383 6.63 C 2.371 6.717 2.906 6.633 2.955 6.647 C 3.004 6.661 2.929 6.687 2.882 6.782 C 2.835 6.877 2.783 7.003 2.857 7.214 C 2.931 7.425 2.987 7.367 3.153 7.525 C 3.319 7.683 3.64 7.559 3.702 7.57" class="fil0 str6"/>
        <path id="_30194024" style="stroke: rgb(0, 0, 0); stroke-width: 0.023094; stroke-linecap: round; fill: url(#gradient-4);" d="M 3.671 6.224 C 3.853 6.4 3.501 7.621 3.639 7.616 C 3.778 7.612 3.599 7.656 3.752 7.666 C 3.904 7.675 4.001 7.656 4.103 7.661 C 4.205 7.666 4.129 7.668 4.244 7.654 C 4.36 7.64 4.587 7.645 4.647 7.645 C 4.707 7.645 4.739 7.659 4.73 7.562 C 4.721 7.465 5.06 7.463 5.057 7.06 C 5.054 6.657 4.944 6.616 4.862 6.501 C 4.78 6.386 5.457 6.489 5.569 6.469 C 5.681 6.449 4.622 5.381 4.497 5.367 C 4.372 5.354 3.675 5.329 3.675 5.329" class="fil0 str5"/>
        <path id="_30387184" style="stroke: rgb(0, 0, 0); stroke-width: 0.023094; stroke-linecap: round; fill: url(#gradient-5);" d="M 3.793 5.669 C 3.793 5.669 3.639 4.977 3.042 4.913 C 3.072 4.802 3.501 5.769 3.489 5.666 C 3.476 5.564 3.494 5.587 3.537 5.493 C 3.58 5.399 3.578 5.427 3.595 5.35 C 3.612 5.273 3.652 5.318 3.763 5.31 C 3.875 5.301 4.178 5.293 4.264 5.301 C 4.349 5.31 4.339 5.303 4.356 5.358 C 4.373 5.414 4.364 5.316 4.361 5.353 C 4.348 5.507 4.244 5.591 4.227 5.6 M 3.803 5.365 C 3.842 5.395 4.056 5.308 4.068 5.351 M 4.569 4.943 C 4.84 4.498 4.154 5.783 4.181 5.772 C 4.208 5.761 4.285 5.308 4.151 5.315 C 4.017 5.322 4.149 5.315 4.089 5.349" class="fil0 str5"/>
        <path id="_30195616" style="stroke: rgb(0, 0, 0); stroke-width: 0.0095974; stroke-linecap: round; fill: url(#gradient-6);" d="M 3.685 5.281 C 3.71 5.271 3.902 5.327 3.997 5.327 C 4.092 5.327 4.238 5.311 4.288 5.338 C 4.314 5.352 4.311 5.295 4.322 5.371 M 3.685 5.281 C 3.659 5.292 3.643 5.311 3.636 5.362" class="fil0 str4"/>
        <path id="_30308744" style="stroke: rgb(0, 0, 0); stroke-width: 0.023094; stroke-linecap: round; fill: url(#gradient-7);" d="M 3.636 5.362 C 3.62 5.426 3.615 5.359 3.663 5.486 C 3.712 5.613 3.774 5.692 3.779 5.727" class="fil0 str5"/>
        <path id="_30189040" style="stroke: rgb(0, 0, 0); stroke-width: 0.015357; stroke-linecap: round; fill: url(#gradient-8);" d="M 3.581 5.403 C 3.597 5.356 3.698 5.308 3.765 5.304 C 3.832 5.299 4.109 5.305 4.151 5.304 C 4.211 5.301 3.677 5.34 3.695 5.361" class="fil0 str6"/>
        <path id="_30189200" style="stroke: rgb(0, 0, 0); stroke-width: 0.0095974; stroke-linecap: round; fill: url(#gradient-9);" d="M 3.58 5.216 C 3.564 5.336 3.631 5.569 3.693 5.667" class="fil0 str4"/>
        <path id="_30309616" style="stroke: rgb(0, 0, 0); stroke-width: 0.023094; stroke-linecap: round; fill: url(#gradient-10);" d="M 4.322 5.371 C 4.332 5.429 4.303 5.317 4.301 5.364 C 4.299 5.433 4.271 5.551 4.255 5.607 C 4.239 5.662 4.183 5.681 4.183 5.711" class="fil0 str5"/>
        <path id="_30189568" style="stroke: rgb(0, 0, 0); stroke-width: 0.0095974; stroke-linecap: round; fill: url(#gradient-11);" d="M 4.345 5.253 C 4.345 5.387 4.338 5.484 4.324 5.551 C 4.31 5.618 4.296 5.641 4.292 5.66" class="fil0 str4"/>
        <path id="_30386336" style="stroke: rgb(0, 0, 0); stroke-width: 0.015357; stroke-linecap: round; fill: url(#gradient-12);" d="m3.8223 6.3003c-0.0197 0.0341-0.0151 0.0017-0.0289 0.2236-0.0139 0.2219-0.037 0.6795-0.0509 0.7904s-0.0508 0.2727 0.0093 0.3513m0.3698-1.3589c-0.0555 0.0601-0.074 0.0924-0.0648 0.2681 0.0093 0.1756-0.0092 0.4576-0.0046 0.6239 0.0046 0.1665 0.0185 0.3976 0.0185 0.3976s0.0012 0.0555-0.0172 0.0647" class="fil0 str6"/>
        <path id="_30403336" style="stroke: rgb(0, 0, 0); stroke-width: 0.0095974; stroke-linecap: round; fill: url(#gradient-13);" d="m4.1325 6.6211c0 0.003 0.3837 0.027 0.4467-0.003m-0.4467 0.003c0 0.1499-0.006 0.3657-0.009 0.4106m-0.003 0.048c-0.0029 0.0329 0.009 0.0629 0.069 0.0629m0.0839 0.003s0.2818-0.015 0.2938-0.003m0.0539-0.4766s0.015 0.3657 0.009 0.4107" class="fil0 str4"/>
        <path id="_30189944" style="stroke: rgb(0, 0, 0); stroke-width: 0.015357; stroke-linecap: round; fill: url(#gradient-14);" d="m3.9686 6.5923c0-0.0203-0.019-0.0368-0.0426-0.0368-0.0235 0-0.0426 0.0165-0.0426 0.0368s0.0191 0.0368 0.0426 0.0368c0.0236 0 0.0426-0.0165 0.0426-0.0368zm-0.015 0.4436c0-0.0203-0.019-0.0368-0.0426-0.0368-0.0235 0-0.0426 0.0165-0.0426 0.0368s0.0191 0.0368 0.0426 0.0368c0.0236 0 0.0426-0.0165 0.0426-0.0368zm-0.003 0.5785c0-0.0235-0.019-0.0426-0.0426-0.0426-0.0235 0-0.0426 0.0191-0.0426 0.0426s0.0191 0.0426 0.0426 0.0426c0.0236 0 0.0426-0.0191 0.0426-0.0426z" class="fil0 str6"/>
      </g>
    </g>
    <path d="M 227.491 709.815 C 227.491 722.62 241.343 725.169 252.19 723.361 C 258.582 722.296 261.581 715.19 263.345 711.409 C 263.446 711.193 265.071 708.62 264.673 708.222 C 263.441 706.99 253.929 709.212 252.722 709.816 C 252.451 709.951 245.097 711.7 244.223 711.409 C 242.089 710.698 240.167 710.588 237.848 709.815 C 234.878 708.825 232.127 709.815 228.819 709.815" style="stroke: rgb(0, 0, 0); stroke-width: 0.7; fill: url(#gradient-15);"/>
    <path d="M 230.912 719.369 C 230.912 732.174 248.275 733.051 256.216 728.134 C 258.921 726.46 258.346 724.721 259.863 720.963 C 259.95 720.75 261.257 718.174 260.936 717.776 C 259.941 716.544 252.26 718.766 251.285 719.37 C 251.067 719.505 245.128 721.254 244.422 720.963 C 242.699 720.252 241.147 720.142 239.275 719.369 C 236.876 718.379 234.656 719.369 231.984 719.369" style="stroke: rgb(0, 0, 0); stroke-width: 0.7; fill: url(#gradient-16);"/>
  </g>
</svg>

<svg class="shirtOverlay" width="86" height="380" viewBox="202.715 584.407 86.593 380.048" preserveAspectRatio="xMidYMax" xmlns="http://www.w3.org/2000/svg"><defs id="svgEditorDefs"><style id="style6">.str4,.str5,.str6{stroke:#000;stroke-width:.00959738;stroke-linecap:round}.str5,.str6{stroke-width:.0153574}.str5{stroke-width:.0230938}.fil0{fill:none;fill-rule:nonzero}</style><radialGradient id="gradient-0" gradientUnits="userSpaceOnUse" cx="239.503" cy="683.733" r="6.76"><stop offset="0" stop-color="#fbfbfb"/><stop offset="1" stop-color="#c8c8c8"/></radialGradient><radialGradient id="gradient-1" gradientUnits="userSpaceOnUse" cx="253.594" cy="684.462" r="6.446"><stop offset="0" stop-color="#fbfbfb"/><stop offset="1" stop-color="#c8c8c8"/></radialGradient><radialGradient id="gradient-2" gradientUnits="userSpaceOnUse" cx="3.898" cy="6.744" r="1.049"><stop offset="0" stop-color="#fbfbfb"/><stop offset="1" stop-color="#c8c8c8"/></radialGradient><radialGradient id="gradient-3" gradientUnits="userSpaceOnUse" cx="3.042" cy="6.469" r=".66"><stop offset="0" stop-color="#fbfbfb"/><stop offset="1" stop-color="#c8c8c8"/></radialGradient><radialGradient id="gradient-4" gradientUnits="userSpaceOnUse" cx="4.592" cy="6.499" r=".986"><stop offset="0" stop-color="#fbfbfb"/><stop offset="1" stop-color="#c8c8c8"/></radialGradient><radialGradient id="gradient-5" gradientUnits="userSpaceOnUse" cx="3.837" cy="5.311" r=".795"><stop offset="0" stop-color="#fbfbfb"/><stop offset="1" stop-color="#c8c8c8"/></radialGradient><radialGradient id="gradient-6" gradientUnits="userSpaceOnUse" cx="3.979" cy="5.325" r=".343"><stop offset="0" stop-color="#fbfbfb"/><stop offset="1" stop-color="#c8c8c8"/></radialGradient><radialGradient id="gradient-7" gradientUnits="userSpaceOnUse" cx="3.702" cy="5.545" r=".077"><stop offset="0" stop-color="#fbfbfb"/><stop offset="1" stop-color="#c8c8c8"/></radialGradient><radialGradient id="gradient-8" gradientUnits="userSpaceOnUse" cx="3.868" cy="5.352" r=".287"><stop offset="0" stop-color="#fbfbfb"/><stop offset="1" stop-color="#c8c8c8"/></radialGradient><radialGradient id="gradient-9" gradientUnits="userSpaceOnUse" cx="3.635" cy="5.441" r=".058"><stop offset="0" stop-color="#fbfbfb"/><stop offset="1" stop-color="#c8c8c8"/></radialGradient><radialGradient id="gradient-10" gradientUnits="userSpaceOnUse" cx="4.254" cy="5.532" r=".071"><stop offset="0" stop-color="#fbfbfb"/><stop offset="1" stop-color="#c8c8c8"/></radialGradient><radialGradient id="gradient-11" gradientUnits="userSpaceOnUse" cx="4.318" cy="5.456" r=".026"><stop offset="0" stop-color="#fbfbfb"/><stop offset="1" stop-color="#c8c8c8"/></radialGradient><radialGradient id="gradient-12" gradientUnits="userSpaceOnUse" cx="3.92" cy="6.983" r=".202"><stop offset="0" stop-color="#fbfbfb"/><stop offset="1" stop-color="#c8c8c8"/></radialGradient><radialGradient id="gradient-13" gradientUnits="userSpaceOnUse" cx="4.376" cy="6.882" r=".256"><stop offset="0" stop-color="#fbfbfb"/><stop offset="1" stop-color="#c8c8c8"/></radialGradient><radialGradient id="gradient-14" gradientUnits="userSpaceOnUse" cx="3.917" cy="7.106" r=".052"><stop offset="0" stop-color="#fbfbfb"/><stop offset="1" stop-color="#c8c8c8"/></radialGradient><radialGradient id="gradient-15" gradientUnits="userSpaceOnUse" cx="246.113" cy="715.868" r="18.622"><stop offset="0" stop-color="#fbfbfb"/><stop offset="1" stop-color="#c8c8c8"/></radialGradient><radialGradient id="gradient-16" gradientUnits="userSpaceOnUse" cx="245.949" cy="724.158" r="15.037"><stop offset="0" stop-color="#fbfbfb"/><stop offset="1" stop-color="#c8c8c8"/></radialGradient></defs><path id="svgEditorBackground" class="clothes" fill="none" d="M202.715 584.431h86.593V700.24h-86.593z"/><path id="rect-1" class="clothes" fill="none" d="M-403.988 499.579h1300v550h-1300z"/><path d="M232.743 676.441c3.659-1.234 9.738.194 11.048 3.007 1.956 2.211 3.412 8.389 1.744 12.024.659-10.194-5.403-15.6-12.792-15.031z" id="e39_area3" class="clothes" stroke-width="0" fill="url(#gradient-0)"/><path d="M247.148 691.558c3.488 1.195 8.669-.77 10.534-2.911 1.864-2.142 3.253-8.125 1.663-11.644.628 9.871-5.152 15.106-12.197 14.555z" id="e9_area3" class="clothes" transform="rotate(180 253.594 684.462)" stroke-width="0" fill="url(#gradient-1)"/><g transform="matrix(5.05705 0 0 5.08613 224.843 660.313)"><g id="_30190384" transform="matrix(4.6172 0 0 4.5844 -14.131 -25.157)"><path id="_30193904" d="M3.697 5.82h.425v.148h-.425V5.82zm-.279.192c-.004.055.028.158.028.201a.537.537 0 0 1-.02.143m.011-.411a.618.618 0 0 0 .016.184.496.496 0 0 1 .013.084.576.576 0 0 1-.021.149m.017-.465a.63.63 0 0 0 .009.167c.01.033.013.048.011.084m.482.135s.063.032.066.048m-.007.011c-.012-.018-.078-.042-.091-.041m.084.053A.206.206 0 0 0 3.9 6.32m.11.045a.264.264 0 0 0-.141-.027m-.032.019c.085-.073.124-.006.165.02m-.788 1.29l.163-.004c.052-.002.096-.007.139-.011.072-.007.141-.014.237-.008.047.003.088.003.126.002m.06-.002l.029-.002c.048-.002.091-.005.136-.003l.086.006c.093.006.204.014.289.004.099-.012-.119-.027-.03-.026l.06.001h.017m-1.313.021l.165-.004.136-.01a1.38 1.38 0 0 1 .24-.009c.041.003.079.003.113.003m.083-.003l.017-.001c.048-.003.093-.005.138-.003l.087.005c.091.006.201.014.285.004.099-.012-.118-.026-.027-.026l.497-.337m-1.639.404l.517-.488.038-1.138s-.206 1.534-.106 1.54c.045.003.084.003.121.002m.058-.002l.028-.001c.05-.003-.188-.423-.141-.421l.372.423c.088.006.195.014.277.004.101-.012-.114-.027-.022-.026l.234.017m-.879-1.44c.182-.098.062 1.852-.66 1.386-.722-.466.121-.802-.038-1.092" class="fil0" stroke="#000" stroke-width=".006" stroke-linecap="round" fill="url(#gradient-2)"/><path id="_30190360" d="M3.675 5.332c-.346.168-.224.075-.503.235-.279.16-.777.976-.789 1.063-.012.087.523.003.572.017.049.014-.026.04-.073.135a.498.498 0 0 0-.025.432c.074.211.13.153.296.311.166.158.487.034.549.045" class="fil0 str6" stroke="#000" stroke-width=".015" stroke-linecap="round" fill="url(#gradient-3)"/><path id="_30194024" d="M3.671 6.224c.182.176-.17 1.397-.032 1.392.139-.004-.04.04.113.05.152.009.249-.01.351-.005.102.005.026.007.141-.007.116-.014.343-.009.403-.009s.092.014.083-.083c-.009-.097.33-.099.327-.502-.003-.403-.113-.444-.195-.559-.082-.115.595-.012.707-.032.112-.02-.947-1.088-1.072-1.102-.125-.013-.822-.038-.822-.038" class="fil0 str5" stroke="#000" stroke-width=".023" stroke-linecap="round" fill="url(#gradient-4)"/><path id="_30387184" d="M3.793 5.669s-.154-.692-.751-.756c.03-.111.459.856.447.753-.013-.102.005-.079.048-.173.043-.094.041-.066.058-.143.017-.077.057-.032.168-.04.112-.009.415-.017.501-.009.085.009.075.002.092.057.017.056.008-.042.005-.005a.338.338 0 0 1-.134.247m-.424-.235c.039.03.253-.057.265-.014m.501-.408c.271-.445-.415.84-.388.829.027-.011.104-.464-.03-.457-.134.007-.002 0-.062.034" class="fil0 str5" stroke="#000" stroke-width=".023" stroke-linecap="round" fill="url(#gradient-5)"/><path id="_30195616" d="M3.685 5.281c.025-.01.217.046.312.046s.241-.016.291.011c.026.014.023-.043.034.033m-.637-.09c-.026.011-.042.03-.049.081" class="fil0 str4" stroke="#000" stroke-width=".01" stroke-linecap="round" fill="url(#gradient-6)"/><path id="_30308744" d="M3.636 5.362c-.016.064-.021-.003.027.124.049.127.111.206.116.241" class="fil0 str5" stroke="#000" stroke-width=".023" stroke-linecap="round" fill="url(#gradient-7)"/><path id="_30189040" d="M3.581 5.403c.016-.047.117-.095.184-.099.067-.005.344.001.386 0 .06-.003-.474.036-.456.057" class="fil0 str6" stroke="#000" stroke-width=".015" stroke-linecap="round" fill="url(#gradient-8)"/><path id="_30189200" d="M3.58 5.216c-.016.12.051.353.113.451" class="fil0 str4" stroke="#000" stroke-width=".01" stroke-linecap="round" fill="url(#gradient-9)"/><path id="_30309616" d="M4.322 5.371c.01.058-.019-.054-.021-.007-.002.069-.03.187-.046.243-.016.055-.072.074-.072.104" class="fil0 str5" stroke="#000" stroke-width=".023" stroke-linecap="round" fill="url(#gradient-10)"/><path id="_30189568" d="M4.345 5.253c0 .134-.007.231-.021.298-.014.067-.028.09-.032.109" class="fil0 str4" stroke="#000" stroke-width=".01" stroke-linecap="round" fill="url(#gradient-11)"/><path id="_30386336" d="M3.822 6.3c-.02.034-.015.002-.029.224-.014.222-.037.68-.05.79s-.051.273.009.352m.37-1.36c-.056.06-.074.093-.065.269.01.175-.01.457-.005.624.005.166.019.397.019.397s0 .056-.017.065" class="fil0 str6" stroke="#000" stroke-width=".015" stroke-linecap="round" fill="url(#gradient-12)"/><path id="_30403336" d="M4.133 6.621c0 .003.383.027.446-.003m-.446.003c0 .15-.006.366-.01.41m-.003.049c-.002.033.01.063.07.063m.083.003s.282-.015.294-.003m.054-.477s.015.366.01.41" class="fil0 str4" stroke="#000" stroke-width=".01" stroke-linecap="round" fill="url(#gradient-13)"/><path id="_30189944" d="M3.969 6.592c0-.02-.02-.036-.043-.036-.024 0-.043.016-.043.036s.02.037.043.037c.024 0 .043-.016.043-.037zm-.015.444c0-.02-.02-.037-.043-.037-.024 0-.043.017-.043.037s.02.037.043.037c.024 0 .043-.017.043-.037zm-.003.578a.043.043 0 1 0-.086 0 .043.043 0 0 0 .086 0z" class="fil0 str6" stroke="#000" stroke-width=".015" stroke-linecap="round" fill="url(#gradient-14)"/></g></g><path d="M227.491 709.815c0 12.805 13.852 15.354 24.699 13.546 6.392-1.065 9.391-8.171 11.155-11.952.101-.216 1.726-2.789 1.328-3.187-1.232-1.232-10.744.99-11.951 1.594-.271.135-7.625 1.884-8.499 1.593-2.134-.711-4.056-.821-6.375-1.594-2.97-.99-5.721 0-9.029 0" stroke="#000" stroke-width=".7" fill="url(#gradient-15)"/><path d="M230.912 719.369c0 12.805 17.363 13.682 25.304 8.765 2.705-1.674 2.13-3.413 3.647-7.171.087-.213 1.394-2.789 1.073-3.187-.995-1.232-8.676.99-9.651 1.594-.218.135-6.157 1.884-6.863 1.593-1.723-.711-3.275-.821-5.147-1.594-2.399-.99-4.619 0-7.291 0" stroke="#000" stroke-width=".7" fill="url(#gradient-16)"/></svg>
